X:147
T: Espen - Zweiglein
N: A0178B
O: Europa, Mitteleuropa, Deutschland
N: Werlin Hs. 1646 S. 1446.
R: Romanze, Ballade, Lied
M: 4/4
L: 1/8
K: F
F2F2F2 | B2F2G2A2 | B4z2
B2 | A2B2c2d2 | c4B4 | z2
B2A2B2 | c2d2c2BA | G2G2F4 | z2
c2B2A2 | G2F2G4 | F8 | z2

@@@ Tune index: 147
